X: 1
T: fermata applied to rest
M: 2/4
L: 1/8
K: G
[V:1] CDEF|GAF!fermata!G|C2 C2|
[V:2] EFGA|Bcd!fermata!z|C2 C2|
[V:1] CDEF|GAF!fermata!G|C2 C2|
[V:2] EFGA|Bcd!fermata!G|C2 C2|
